assets/images/study/visual-pathway-diagram.svg

<svg xmlns="http://www.w3.org/2000/svg" width="800" height="600" aria-hidden="false" viewBox="0 0 800 600"><defs><linearGradient id="a" x1="0%" x2="100%" y1="0%" y2="0%"><stop offset="0%" stop-color="#fcc"/><stop offset="100%" stop-color="#faa"/></linearGradient><filter id="b" width="140%" height="140%" x="-20%" y="-20%"><feGaussianBlur in="SourceAlpha" stdDeviation="3"/><feOffset dx="2" dy="2" result="offsetblur"/><feComponentTransfer><feFuncA slope=".3" type="linear"/></feComponentTransfer><feMerge><feMergeNode/><feMergeNode in="SourceGraphic"/></feMerge></filter></defs><path fill="#f8f8f8" d="M0 0h800v600H0z"/><text x="400" y="40" fill="#333" font-family="Arial, sans-serif" font-size="24" font-size-adjust=".5" font-weight="bold" text-anchor="middle" text-rendering="optimizeLegibility">Visual Pathway: Eye to Brain</text><path fill="url(#a)" stroke="#333" stroke-width="1.5" d="M400 150c100-30 200 0 250 100 30 70 0 150-50 200s-120 80-200 70c-80 10-150-20-200-70s-80-130-50-200c50-100 150-130 250-100Z"/><path fill="#f88" stroke="#c00" stroke-width="1.5" d="M400 520c-50-10-90-40-120-80q45 30 120 30t120-30c-30 40-70 70-120 80Z"/><text x="400" y="495" fill="#333" font-family="Arial, sans-serif" font-size="14" font-size-adjust=".5" font-weight="bold" text-anchor="middle" text-rendering="optimizeLegibility">Primary Visual Cortex</text><text x="400" y="515" fill="#333" font-family="Arial, sans-serif" font-size="12" font-size-adjust=".5" text-anchor="middle" text-rendering="optimizeLegibility">(Occipital Lobe)</text><ellipse cx="285" cy="370" fill="#f96" stroke="#c60" stroke-width="1.5" rx="20" ry="15"/><text x="285" y="400" fill="#333" font-family="Arial, sans-serif" font-size="12" font-size-adjust=".5" text-anchor="middle" text-rendering="optimizeLegibility">Left LGN</text><ellipse cx="515" cy="370" fill="#f96" stroke="#c60" stroke-width="1.5" rx="20" ry="15"/><text x="515" y="400" fill="#333" font-family="Arial, sans-serif" font-size="12" font-size-adjust=".5" text-anchor="middle" text-rendering="optimizeLegibility">Right LGN</text><path fill="#ffa" stroke="#990" stroke-width="1.5" d="M360 280c20-10 60-10 80 0v20c-20 10-60 10-80 0Z"/><text x="400" y="330" fill="#333" font-family="Arial, sans-serif" font-size="14" font-size-adjust=".5" font-weight="bold" text-anchor="middle" text-rendering="optimizeLegibility">Optic Chiasm</text><path fill="none" stroke="#cc0" stroke-linecap="round" stroke-width="4" d="M360 290c-40 10-60 30-75 65"/><text x="310" y="315" fill="#333" font-family="Arial, sans-serif" font-size="12" font-size-adjust=".5" text-anchor="middle" text-rendering="optimizeLegibility">Left Optic Tract</text><path fill="none" stroke="#cc0" stroke-linecap="round" stroke-width="4" d="M440 290c40 10 60 30 75 65"/><text x="490" y="315" fill="#333" font-family="Arial, sans-serif" font-size="12" font-size-adjust=".5" text-anchor="middle" text-rendering="optimizeLegibility">Right Optic Tract</text><path fill="none" stroke="#cc0" stroke-dasharray="7,3" stroke-width="3" d="M285 385c15 15 25 35 55 65 20 15 40 20 60 20"/><text x="320" y="440" fill="#333" font-family="Arial, sans-serif" font-size="12" font-size-adjust=".5" text-anchor="middle" text-rendering="optimizeLegibility">Left Optic Radiation</text><path fill="none" stroke="#cc0" stroke-dasharray="7,3" stroke-width="3" d="M515 385c-15 15-25 35-55 65-20 15-40 20-60 20"/><text x="480" y="440" fill="#333" font-family="Arial, sans-serif" font-size="12" font-size-adjust=".5" text-anchor="middle" text-rendering="optimizeLegibility">Right Optic Radiation</text><circle cx="250" cy="180" r="40" fill="#fff" stroke="#333" stroke-width="1.5"/><circle cx="250" cy="180" r="15" fill="#9cf" stroke="#06c"/><circle cx="250" cy="180" r="5"/><text x="250" y="235" fill="#333" font-family="Arial, sans-serif" font-size="14" font-size-adjust=".5" font-weight="bold" text-anchor="middle" text-rendering="optimizeLegibility">Left Eye</text><circle cx="550" cy="180" r="40" fill="#fff" stroke="#333" stroke-width="1.5"/><circle cx="550" cy="180" r="15" fill="#9cf" stroke="#06c"/><circle cx="550" cy="180" r="5"/><text x="550" y="235" fill="#333" font-family="Arial, sans-serif" font-size="14" font-size-adjust=".5" font-weight="bold" text-anchor="middle" text-rendering="optimizeLegibility">Right Eye</text><path fill="none" stroke="#cc0" stroke-linecap="round" stroke-width="4" d="M280 200c40 30 60 50 80 80"/><text x="320" y="220" fill="#333" font-family="Arial, sans-serif" font-size="12" font-size-adjust=".5" text-anchor="middle" text-rendering="optimizeLegibility">Left Optic Nerve</text><path fill="none" stroke="#cc0" stroke-linecap="round" stroke-width="4" d="M520 200c-40 30-60 50-80 80"/><text x="480" y="220" fill="#333" font-family="Arial, sans-serif" font-size="12" font-size-adjust=".5" text-anchor="middle" text-rendering="optimizeLegibility">Right Optic Nerve</text><path fill="none" stroke="#06c" stroke-dasharray="5,3" stroke-width="2" d="M200 100a60 60 0 0 1 0 160"/><text x="165" y="180" fill="#06c" font-family="Arial, sans-serif" font-size="12" font-size-adjust=".5" text-anchor="middle" text-rendering="optimizeLegibility" transform="rotate(-90 165 180)">Left Visual Field</text><path fill="none" stroke="#c00" stroke-dasharray="5,3" stroke-width="2" d="M600 100a60 60 0 0 0 0 160"/><text x="635" y="180" fill="#c00" font-family="Arial, sans-serif" font-size="12" font-size-adjust=".5" text-anchor="middle" text-rendering="optimizeLegibility" transform="rotate(90 635 180)">Right Visual Field</text><path fill="none" stroke="#06c" stroke-dasharray="3,2" stroke-width="1.5" d="m210 150 50 25 120 105 135 90-65 80"/><path fill="none" stroke="#c00" stroke-dasharray="3,2" stroke-width="1.5" d="m590 150-50 25-120 105-135 90 65 80"/><path fill="none" stroke="#333" stroke-dasharray="2,1" d="M400 280v-40h50"/><rect width="200" height="40" x="450" y="220" fill="#fff" stroke="#333" filter="url(#b)" rx="10" ry="10"/><text x="550" y="240" fill="#333" font-family="Arial, sans-serif" font-size="11" font-size-adjust=".5" text-anchor="middle" text-rendering="optimizeLegibility">Nasal fibers cross at chiasm</text><text x="550" y="255" fill="#333" font-family="Arial, sans-serif" font-size="11" font-size-adjust=".5" text-anchor="middle" text-rendering="optimizeLegibility">Temporal fibers remain uncrossed</text><path fill="none" stroke="#333" stroke-dasharray="2,1" d="M515 370h85"/><rect width="180" height="40" x="600" y="350" fill="#fff" stroke="#333" filter="url(#b)" rx="10" ry="10"/><text x="690" y="370" fill="#333" font-family="Arial, sans-serif" font-size="11" font-size-adjust=".5" text-anchor="middle" text-rendering="optimizeLegibility">Lateral Geniculate Nucleus (LGN)</text><text x="690" y="385" fill="#333" font-family="Arial, sans-serif" font-size="11" font-size-adjust=".5" text-anchor="middle" text-rendering="optimizeLegibility">Visual relay center in thalamus</text><path fill="none" stroke="#333" stroke-dasharray="2,1" d="M400 495H150"/><rect width="130" height="40" x="20" y="475" fill="#fff" stroke="#333" filter="url(#b)" rx="10" ry="10"/><text x="85" y="495" fill="#333" font-family="Arial, sans-serif" font-size="11" font-size-adjust=".5" text-anchor="middle" text-rendering="optimizeLegibility">V1 - Primary Visual Cortex</text><text x="85" y="510" fill="#333" font-family="Arial, sans-serif" font-size="11" font-size-adjust=".5" text-anchor="middle" text-rendering="optimizeLegibility">(Brodmann Area 17)</text><rect width="200" height="100" x="580" y="100" fill="#fff" stroke="#333" rx="5" ry="5"/><text x="680" y="120" fill="#333" font-family="Arial, sans-serif" font-size="14" font-size-adjust=".5" font-weight="bold" text-anchor="middle" text-rendering="optimizeLegibility">LEGEND</text><path stroke="#cc0" stroke-width="4" d="M600 140h30"/><text x="680" y="144" fill="#333" font-family="Arial, sans-serif" font-size="12" font-size-adjust=".5" text-rendering="optimizeLegibility">Optic Nerve/Tract</text><path stroke="#cc0" stroke-dasharray="7,3" stroke-width="3" d="M600 165h30"/><text x="680" y="169" fill="#333" font-family="Arial, sans-serif" font-size="12" font-size-adjust=".5" text-rendering="optimizeLegibility">Optic Radiation</text><path stroke="#06c" stroke-dasharray="3,2" stroke-width="1.5" d="M600 190h30"/><text x="680" y="194" fill="#333" font-family="Arial, sans-serif" font-size="12" font-size-adjust=".5" text-rendering="optimizeLegibility">Signal Path</text><text x="400" y="580" fill="#555" font-family="Arial, sans-serif" font-size="12" font-size-adjust=".5" text-anchor="middle" text-rendering="optimizeLegibility">Note: Left visual field information is processed by the right hemisphere, and right visual field information is processed by the left hemisphere.</text></svg>

<svg xmlns="http://www.w3.org/2000/svg" width="800" height="600" viewBox="0 0 800 600">
  <title>Visual Pathway Diagram</title>
  <defs>
    <linearGradient id="brainGradient" x1="0%" y1="0%" x2="100%" y2="0%">
      <stop offset="0%" stop-color="#ffcccc" />
      <stop offset="100%" stop-color="#ffaaaa" />
    </linearGradient>
    <linearGradient id="opticNerveGradient" x1="0%" y1="0%" x2="100%" y2="0%">
      <stop offset="0%" stop-color="#ffffcc" />
      <stop offset="100%" stop-color="#fff288" />
    </linearGradient>
    <filter id="shadow" x="-20%" y="-20%" width="140%" height="140%">
      <feGaussianBlur in="SourceAlpha" stdDeviation="3" />
      <feOffset dx="2" dy="2" result="offsetblur" />
      <feComponentTransfer>
        <feFuncA type="linear" slope="0.3" />
      </feComponentTransfer>
      <feMerge>
        <feMergeNode />
        <feMergeNode in="SourceGraphic" />
      </feMerge>
    </filter>
    <marker id="arrowhead" markerWidth="10" markerHeight="7" refX="0" refY="3.5" orient="auto">
      <polygon points="0 0, 10 3.5, 0 7" fill="#0066cc" />
    </marker>
  </defs>
  
  <!-- Background -->
  <rect width="800" height="600" fill="#f8f8f8" />
  
  <!-- Title -->
  <text x="400" y="40" font-family="Arial, sans-serif" font-size="24" font-weight="bold" text-anchor="middle" fill="#333333">Visual Pathway: Eye to Brain</text>
  
  <!-- Brain Outline - Sagittal View -->
  <path d="M 400,150 
           C 500,120 600,150 650,250
           C 680,320 650,400 600,450
           C 550,500 480,530 400,520
           C 320,530 250,500 200,450
           C 150,400 120,320 150,250
           C 200,150 300,120 400,150 Z" 
        fill="url(#brainGradient)" stroke="#333333" stroke-width="1.5" />
  
  <!-- Visual Cortex -->
  <path d="M 400,520 
           C 350,510 310,480 280,440
           C 310,460 350,470 400,470
           C 450,470 490,460 520,440
           C 490,480 450,510 400,520 Z" 
        fill="#ff8888" stroke="#cc0000" stroke-width="1.5" />
  <text x="400" y="495" font-family="Arial, sans-serif" font-size="14" font-weight="bold" text-anchor="middle" fill="#333333">Primary Visual Cortex</text>
  <text x="400" y="515" font-family="Arial, sans-serif" font-size="12" text-anchor="middle" fill="#333333">(Occipital Lobe)</text>
  
  <!-- LGN (Lateral Geniculate Nucleus) - Left -->
  <ellipse cx="285" cy="370" rx="20" ry="15" fill="#ff9966" stroke="#cc6600" stroke-width="1.5" />
  <text x="285" y="400" font-family="Arial, sans-serif" font-size="12" text-anchor="middle" fill="#333333">Left LGN</text>
  
  <!-- LGN - Right -->
  <ellipse cx="515" cy="370" rx="20" ry="15" fill="#ff9966" stroke="#cc6600" stroke-width="1.5" />
  <text x="515" y="400" font-family="Arial, sans-serif" font-size="12" text-anchor="middle" fill="#333333">Right LGN</text>
  
  <!-- Optic Chiasm -->
  <path d="M 360,280 C 380,270 420,270 440,280 L 440,300 C 420,310 380,310 360,300 Z" fill="#ffffaa" stroke="#999900" stroke-width="1.5" />
  <text x="400" y="330" font-family="Arial, sans-serif" font-size="14" font-weight="bold" text-anchor="middle" fill="#333333">Optic Chiasm</text>
  
  <!-- Optic Tracts -->
  <!-- Left -->
  <path d="M 360,290 C 320,300 300,320 285,355" fill="none" stroke="#cccc00" stroke-width="4" stroke-linecap="round" />
  <text x="310" y="315" font-family="Arial, sans-serif" font-size="12" text-anchor="middle" fill="#333333">Left Optic Tract</text>
  
  <!-- Right -->
  <path d="M 440,290 C 480,300 500,320 515,355" fill="none" stroke="#cccc00" stroke-width="4" stroke-linecap="round" />
  <text x="490" y="315" font-family="Arial, sans-serif" font-size="12" text-anchor="middle" fill="#333333">Right Optic Tract</text>
  
  <!-- Optic Radiations -->
  <!-- Left -->
  <path d="M 285,385 C 300,400 310,420 340,450 C 360,465 380,470 400,470" fill="none" stroke="#cccc00" stroke-width="3" stroke-dasharray="7,3" />
  <text x="320" y="440" font-family="Arial, sans-serif" font-size="12" text-anchor="middle" fill="#333333">Left Optic Radiation</text>
  
  <!-- Right -->
  <path d="M 515,385 C 500,400 490,420 460,450 C 440,465 420,470 400,470" fill="none" stroke="#cccc00" stroke-width="3" stroke-dasharray="7,3" />
  <text x="480" y="440" font-family="Arial, sans-serif" font-size="12" text-anchor="middle" fill="#333333">Right Optic Radiation</text>
  
  <!-- Eyes -->
  <!-- Left Eye -->
  <circle cx="250" cy="180" r="40" fill="white" stroke="#333333" stroke-width="1.5" />
  <circle cx="250" cy="180" r="15" fill="#99ccff" stroke="#0066cc" stroke-width="1" />
  <circle cx="250" cy="180" r="5" fill="#000000" />
  <text x="250" y="235" font-family="Arial, sans-serif" font-size="14" font-weight="bold" text-anchor="middle" fill="#333333">Left Eye</text>
  
  <!-- Right Eye -->
  <circle cx="550" cy="180" r="40" fill="white" stroke="#333333" stroke-width="1.5" />
  <circle cx="550" cy="180" r="15" fill="#99ccff" stroke="#0066cc" stroke-width="1" />
  <circle cx="550" cy="180" r="5" fill="#000000" />
  <text x="550" y="235" font-family="Arial, sans-serif" font-size="14" font-weight="bold" text-anchor="middle" fill="#333333">Right Eye</text>
  
  <!-- Optic Nerves -->
  <!-- Left -->
  <path d="M 280,200 C 320,230 340,250 360,280" fill="none" stroke="#cccc00" stroke-width="4" stroke-linecap="round" />
  <text x="320" y="220" font-family="Arial, sans-serif" font-size="12" text-anchor="middle" fill="#333333">Left Optic Nerve</text>
  
  <!-- Right -->
  <path d="M 520,200 C 480,230 460,250 440,280" fill="none" stroke="#cccc00" stroke-width="4" stroke-linecap="round" />
  <text x="480" y="220" font-family="Arial, sans-serif" font-size="12" text-anchor="middle" fill="#333333">Right Optic Nerve</text>
  
  <!-- Visual Field Indicators -->
  <!-- Left Visual Field -->
  <path d="M 200,100 A 60,60 0 0,1 200,260" fill="none" stroke="#0066cc" stroke-width="2" stroke-dasharray="5,3" />
  <text x="165" y="180" font-family="Arial, sans-serif" font-size="12" text-anchor="middle" fill="#0066cc" transform="rotate(-90, 165, 180)">Left Visual Field</text>
  
  <!-- Right Visual Field -->
  <path d="M 600,100 A 60,60 0 0,0 600,260" fill="none" stroke="#cc0000" stroke-width="2" stroke-dasharray="5,3" />
  <text x="635" y="180" font-family="Arial, sans-serif" font-size="12" text-anchor="middle" fill="#cc0000" transform="rotate(90, 635, 180)">Right Visual Field</text>
  
  <!-- Visual Field Mapping Lines -->
  <!-- From Left Field to Right Visual Cortex -->
  <path d="M 210,150 L 260,175 L 380,280 L 515,370 L 450,450" fill="none" stroke="#0066cc" stroke-width="1.5" stroke-dasharray="3,2" />
  
  <!-- From Right Field to Left Visual Cortex -->
  <path d="M 590,150 L 540,175 L 420,280 L 285,370 L 350,450" fill="none" stroke="#cc0000" stroke-width="1.5" stroke-dasharray="3,2" />
  
  <!-- Annotations -->
  <!-- Visual Field Crossing Annotation -->
  <path d="M 400,280 L 400,240 L 450,240" fill="none" stroke="#333333" stroke-width="1" stroke-dasharray="2,1" />
  <rect x="450" y="220" width="200" height="40" rx="10" ry="10" fill="white" stroke="#333333" stroke-width="1" filter="url(#shadow)" />
  <text x="550" y="240" font-family="Arial, sans-serif" font-size="11" text-anchor="middle" fill="#333333">Nasal fibers cross at chiasm</text>
  <text x="550" y="255" font-family="Arial, sans-serif" font-size="11" text-anchor="middle" fill="#333333">Temporal fibers remain uncrossed</text>
  
  <!-- LGN Annotation -->
  <path d="M 515,370 L 600,370" fill="none" stroke="#333333" stroke-width="1" stroke-dasharray="2,1" />
  <rect x="600" y="350" width="180" height="40" rx="10" ry="10" fill="white" stroke="#333333" stroke-width="1" filter="url(#shadow)" />
  <text x="690" y="370" font-family="Arial, sans-serif" font-size="11" text-anchor="middle" fill="#333333">Lateral Geniculate Nucleus (LGN)</text>
  <text x="690" y="385" font-family="Arial, sans-serif" font-size="11" text-anchor="middle" fill="#333333">Visual relay center in thalamus</text>
  
  <!-- Visual Cortex Annotation -->
  <path d="M 400,495 L 150,495" fill="none" stroke="#333333" stroke-width="1" stroke-dasharray="2,1" />
  <rect x="20" y="475" width="130" height="40" rx="10" ry="10" fill="white" stroke="#333333" stroke-width="1" filter="url(#shadow)" />
  <text x="85" y="495" font-family="Arial, sans-serif" font-size="11" text-anchor="middle" fill="#333333">V1 - Primary Visual Cortex</text>
  <text x="85" y="510" font-family="Arial, sans-serif" font-size="11" text-anchor="middle" fill="#333333">(Brodmann Area 17)</text>
  
  <!-- Legend -->
  <rect x="580" y="100" width="200" height="100" rx="5" ry="5" fill="white" stroke="#333333" stroke-width="1" />
  <text x="680" y="120" font-family="Arial, sans-serif" font-size="14" font-weight="bold" text-anchor="middle" fill="#333333">LEGEND</text>
  
  <line x1="600" y1="140" x2="630" y2="140" stroke="#cccc00" stroke-width="4" />
  <text x="680" y="144" font-family="Arial, sans-serif" font-size="12" fill="#333333">Optic Nerve/Tract</text>
  
  <line x1="600" y1="165" x2="630" y2="165" stroke="#cccc00" stroke-width="3" stroke-dasharray="7,3" />
  <text x="680" y="169" font-family="Arial, sans-serif" font-size="12" fill="#333333">Optic Radiation</text>
  
  <line x1="600" y1="190" x2="630" y2="190" stroke="#0066cc" stroke-width="1.5" stroke-dasharray="3,2" />
  <text x="680" y="194" font-family="Arial, sans-serif" font-size="12" fill="#333333">Signal Path</text>
  
  <!-- Footer Note -->
  <text x="400" y="580" font-family="Arial, sans-serif" font-size="12" text-anchor="middle" fill="#555555">Note: Left visual field information is processed by the right hemisphere, and right visual field information is processed by the left hemisphere.</text>
</svg>
